src/assets/icon/add.svg

<svg width="100" height="100" viewBox="0 0 100 100" fill="none" xmlns="http://www.w3.org/2000/svg">
<g id="add" clip-path="url(#clip0_974_4055)">
<g id="Group 332">
<rect id="Rectangle 414" x="7" y="93" width="86" height="86" rx="43" transform="rotate(-90 7 93)" fill="url(#paint0_linear_974_4055)"/>
<path id="Rectangle 416 (Stroke)" fill-rule="evenodd" clip-rule="evenodd" d="M50 97.5C76.2335 97.5 97.5 76.2335 97.5 50C97.5 23.7665 76.2335 2.5 50 2.5C23.7665 2.5 2.5 23.7665 2.5 50C2.5 76.2335 23.7665 97.5 50 97.5ZM-1.09278e-06 50C-4.89256e-07 77.6142 22.3858 100 50 100C77.6142 100 100 77.6142 100 50C100 22.3858 77.6142 -1.69631e-06 50 -1.09278e-06C22.3858 -4.89256e-07 -1.69631e-06 22.3858 -1.09278e-06 50Z" fill="url(#paint1_linear_974_4055)"/>
<g id="Group 264">
<path id="Union" fill-rule="evenodd" clip-rule="evenodd" d="M50 27.5C53.7279 27.5 56.75 30.5221 56.75 34.25V43.25H65.75C69.4779 43.25 72.5 46.2721 72.5 50C72.5 53.7279 69.4779 56.75 65.75 56.75H56.75V65.75C56.75 69.4779 53.7279 72.5 50 72.5C46.2721 72.5 43.25 69.4779 43.25 65.75V56.75H34.25C30.5221 56.75 27.5 53.7279 27.5 50C27.5 46.2721 30.5221 43.25 34.25 43.25H43.25V34.25C43.25 30.5221 46.2721 27.5 50 27.5Z" fill="#F5F1EE"/>
</g>
</g>
</g>
<defs>
<linearGradient id="paint0_linear_974_4055" x1="111.856" y1="126.36" x2="4.12655" y2="127.459" gradientUnits="userSpaceOnUse">
<stop stop-color="#AB750F"/>
<stop offset="0.237787" stop-color="#D8A956"/>
<stop offset="1" stop-color="#AB750F"/>
</linearGradient>
<linearGradient id="paint1_linear_974_4055" x1="50.0004" y1="104.675" x2="50.0004" y2="-1.82926" gradientUnits="userSpaceOnUse">
<stop stop-color="#AB750F"/>
<stop offset="0.516" stop-color="#D8A956"/>
<stop offset="1" stop-color="#AB750F"/>
</linearGradient>
<clipPath id="clip0_974_4055">
<rect width="100" height="100" fill="white"/>
</clipPath>
</defs>
</svg>

<svg xmlns="http://www.w3.org/2000/svg" width="100" height="100" fill="none" xmlns:v="https://vecta.io/nano"><g clip-path="url(#C)"><rect x="7" y="93" width="86" height="86" rx="43" transform="rotate(270 7 93)" fill="url(#A)"/><g fill-rule="evenodd"><path d="M50 97.5c26.234 0 47.5-21.266 47.5-47.5S76.234 2.5 50 2.5 2.5 23.767 2.5 50 23.767 97.5 50 97.5zM0 50c0 27.614 22.386 50 50 50s50-22.386 50-50S77.614 0 50 0 0 22.386 0 50z" fill="url(#B)"/><path d="M50 27.5a6.75 6.75 0 0 1 6.75 6.75v9h9a6.75 6.75 0 1 1 0 13.5h-9v9a6.75 6.75 0 1 1-13.5 0v-9h-9a6.75 6.75 0 1 1 0-13.5h9v-9A6.75 6.75 0 0 1 50 27.5z" fill="#f5f1ee"/></g></g><defs><linearGradient id="A" x1="111.856" y1="126.36" x2="4.127" y2="127.459" gradientUnits="userSpaceOnUse"><stop stop-color="#ab750f"/><stop offset=".238" stop-color="#d8a956"/><stop offset="1" stop-color="#ab750f"/></linearGradient><linearGradient id="B" x1="50" y1="104.675" x2="50" y2="-1.829" gradientUnits="userSpaceOnUse"><stop stop-color="#ab750f"/><stop offset=".516" stop-color="#d8a956"/><stop offset="1" stop-color="#ab750f"/></linearGradient><clipPath id="C"><path fill="#fff" d="M0 0h100v100H0z"/></clipPath></defs></svg>
